!!!OTL: HINAUS HINAUS INS FREIE
!!!ARE: Europa, Mitteleuropa, Deutschland
!!!SCT: B0203
!!!YEM: Copyright 1995, estate of Helmut Schaffrath.
**kern
*ICvox
*Ivox
*M6/8
*k[b-]
*F:
{8c
=1
4f
8f
4cc
8cc
=2
4.a
4g}
{8g
=3
4a
8a
8b-
8cc
8dd
=4
4.cc
4r}
{8cc
=5
4ff
8ff
8ee
8dd
8cc
=6
4.dd
4.cc}
=7
{4.b-
8a
8cc
8ff
=8
8.cc
16dd
16cc
16b-
4a
8g
=9
4.f
4r}
==
!!!AGN: Jahreszeiten - Lied, Fruehling
!!!ONB: ESAC (Essen Associative Code) Database: BOEHME
!!!AMT: compound duple
!!!AIN: vox
!!!EED: Helmut Schaffrath
!!!EEV: 1.0
*-
